public/icons/diamond.svg

<svg width="24" height="24" viewBox="0 0 24 24" fill="none" xmlns="http://www.w3.org/2000/svg">
<path d="M1.84023 7.1842L4.76734 3.21844C5.3329 2.45219 6.22869 2 7.18106 2H16.8189C17.7713 2 18.6671 2.45219 19.2327 3.21844L22.1598 7.1842C22.9535 8.25957 22.9401 9.73033 22.1269 10.791L14.3808 20.8946C13.18 22.4609 10.82 22.4609 9.61918 20.8946L1.87314 10.791C1.05992 9.73033 1.0465 8.25957 1.84023 7.1842Z" fill="#6889FF"/>
<path d="M22.7458 9H1.2541C1.24684 8.36315 1.44181 7.72409 1.83994 7.18453L4.76729 3.21844C5.33285 2.45219 6.22864 2 7.18101 2H16.8189C17.7713 2 18.667 2.45219 19.2326 3.21844L22.1597 7.1842L22.1607 7.18557C22.5583 7.72491 22.7531 8.36356 22.7458 9Z" fill="#B6B2FF"/>
</svg>

<svg width="24" height="24" viewBox="0 0 24 24" fill="none" xmlns="http://www.w3.org/2000/svg">
  <path d="m1.84 7.184 2.927-3.966A3 3 0 0 1 7.181 2h9.638a3 3 0 0 1 2.414 1.218l2.927 3.966a3 3 0 0 1-.033 3.607L14.38 20.895a3 3 0 0 1-4.762 0L1.873 10.79a3 3 0 0 1-.033-3.607Z" fill="#6889FF"/>
  <path d="M22.746 9H1.254a2.996 2.996 0 0 1 .586-1.815l2.927-3.967A3 3 0 0 1 7.181 2h9.638a3 3 0 0 1 2.414 1.218l2.927 3.966v.002c.398.539.593 1.178.586 1.814Z" fill="#B6B2FF"/>
</svg>
